!!!COM: Bach, Johann Sebastian
!!!CDT: 1685/3//-1750/7/28/
!!!OTL@@DE: Aus meines Herzens Grunde
!!!OTL@EN:  From the depths of my heart
!!!AGN: 4-Part Chorale
!!!SCT: BH 001
!!!SCT: BWV 269
**harm	**root	**kern	**kern	**kern	**kern
!	!	!bass	!tenor	!alto	!sprno
*	*Iorgan	*Iorgan	*Iorgan	*Iorgan	*Iorgan
*	*	*clefF4	*clefF4	*clefG2	*clefG2
*k[f#c#g#d#a#e#b#]	*k[f#c#g#d#a#e#b#]	*k[f#c#g#d#a#e#b#]	*k[f#c#g#d#a#e#b#]	*k[f#c#g#d#a#e#b#]	*k[f#c#g#d#a#e#b#]
*C#:	*C#:	*C#:	*C#:	*C#:	*C#:
*M3/4	*M3/4	*M3/4	*M3/4	*M3/4	*M3/4
*MM60	*MM60	*MM60	*MM60	*MM60	*MM60
*>[A,A,B]	*>[A,A,B]	*>[A,A,B]	*>[A,A,B]	*>[A,A,B]	*>[A,A,B]
*>A	*>A	*>A	*>A	*>A	*>A
I	4GG	4C#	4e#	4g#	4cc#
=1	=1	=1	=1	=1	=1
I	4GG	4c#	4e#	4g#	2cc#
IVb[vi]	4EE	4A#	8f#	4a#	.
.	.	.	8e#	.	.
Vb	4DD	4B#	4d#	4g#	4gg#
=2	=2	=2	=2	=2	=2
I	4GG	4c#	4c#	2g#	4.ee#
V	4DD	4G#	4B#	.	.
.	.	.	.	.	8dd#
vi	4EE	4A#	4c#	4e#	4cc#
=3	=3	=3	=3	=3	=3
IV	4CC	4F#	8f#	8a#	4.cc#
.	.	.	8e#	8g#	.
IV7d	8CC	8E#	4f#	8a#	.
viiob	8FF#	8D#	.	8b#	8dd#
I	4GG	4C#	4g#	4cc#	4ee#
=4	=4	=4	=4	=4	=4
V;	2DD;	2G#;	2g#;	2b#;	2dd#;
I	4GG	4C#	4g#	4cc#	4ee#
=5	=5	=5	=5	=5	=5
Vb	4DD	4BB#	4d#	4g#	2gg#
vi7b	4EE	4C#	4e#	4a#	.
viiob	4FF#	4D#	4f#	4b#	4ff#
=6	=6	=6	=6	=6	=6
Ib	4GG	4E#	4g#	2cc#	4ee#
ii7b	4AA	4F#	4a#	.	2dd#
V7	4DD	4G#	8g#	4b#	.
.	.	.	8f#	.	.
=7	=7	=7	=7	=7	=7
I;	2GG;	2C#;	2e#;	2g#;	2cc#;
=:|!	=:|!	=:|!	=:|!	=:|!	=:|!
*>B	*>B	*>B	*>B	*>B	*>B
I	4GG	4C#	4g#	[4cc#	4ee#
=8	=8	=8	=8	=8	=8
I	4GG	4C#	4g#	8cc#]	4ee#
.	.	.	.	8b#	.
ii	4AA	4D#	4f#	8a#	4ff#
.	.	.	.	8b#	.
Ib	4GG	4E#	8e#	[4cc#	4gg#
.	.	.	8d#	.	.
=9	=9	=9	=9	=9	=9
Ib	4.GG	4.E#	8e#	8cc#]	4.gg#
.	.	.	8f#	8dd#	.
.	.	.	4g#	8cc#	.
V7c	8DD	8D#	.	8b#	8ff#
I	4GG	4C#	4g#	4cc#	4ee#
!!linebreak: 2
=10	=10	=10	=10	=10	=10
V;	2DD;	2G#;	2g#;	2b#;	2dd#;
vi	4EE	[4A#	4e#	4a#	4cc#
=11	=11	=11	=11	=11	=11
vi	4EE	4A#]	4c#	4a#	2ee#
iiib[Ic]	4BB	4G#	4e#	8b#	.
.	.	.	.	8cc#	.
iib	4AA	4F#	4a#	4dd#	4ff#
=12	=12	=12	=12	=12	=12
Ib	2GG	4.E#	2g#	4dd#	2gg#
.	.	.	.	4.cc#	.
.	.	8F#	.	.	.
V7	4DD	4G#	4g#	.	4ff#
.	.	.	.	8b#	.
=13	=13	=13	=13	=13	=13
I	4GG	8C#	2.g#	2cc#	2.ee#
.	.	8D#	.	.	.
Ib	4GG	4E#	.	.	.
V7/IV	4GG	4C#	.	4b	.
=14	=14	=14	=14	=14	=14
IV;	2CC;	2F#;	2f#;	2a#;	2cc#;
I	4GG	4C#	4g#	4cc#	4ee#
=15	=15	=15	=15	=15	=15
Vb	4DD	4BB#	8g#	4.dd#	2gg#
.	.	.	8f#	.	.
I	4GG	4C#	4e#	.	.
.	.	.	.	8cc#	.
viiob	4FF#	4D#	4f#	4b#	4ff#
=16	=16	=16	=16	=16	=16
I	2GG	4E#	2g#	2cc#	2ee#
.	.	4C#	.	.	.
V	4DD	4G#	8g#	[4b#	4dd#
.	.	.	8f#	.	.
=17	=17	=17	=17	=17	=17
vi	4EE	8A#	4e#	8b#]	4.cc#
.	.	8G#	.	8a#	.
IV	8CC	8F#	4f#	8a#	.
viio7d	8FF#	8E#	.	8b#	8dd#
I	4GG	8D#	4g#	4cc#	4ee#
.	.	8C#	.	.	.
=18	=18	=18	=18	=18	=18
V;	2DD;	2G#;	2g#;	2b#;	2dd#;
I	4GG	[4c#	4g#	4cc#	4ee#
=19	=19	=19	=19	=19	=19
Vb	2DD	4c#]	2g#	2dd#	2gg#
.	.	4B#	.	.	.
IVb	4CC	[4A#	4a#	8cc#	4ff#
.	.	.	.	8b#	.
=20	=20	=20	=20	=20	=20
vi	4EE	8A#]	2a#	2cc#	4ee#
.	.	8G#	.	.	.
ii7b	4AA	4F#	.	.	2dd#
V7	4DD	4G#	8g#	4b#	.
.	.	.	8f#	.	.
=21	=21	=21	=21	=21	=21
I;	2GG;	2C#;	2e#;	2g#;	2cc#;
==	==	==	==	==	==
*-	*-	*-	*-	*-	*-
!!chor2scor: -l 2 -s 0.6 -o %b.pmx
!!!ONB1: Text by Georg Niege; 16th Century secular melody, first appears 
!!!ONB2: in sacred use in Neu Catechismus-Gesangbüchlein, Hamburg, 1598. 
!!!YEC: Copyright 2001 by Craig Stuart Sapp
!!!license: GNU General Public License (http://www.gnu.org/copyleft/gpl.html)
!!!SMA: 371 Bach Chorales, edited by Ludwig Erk, C.F. Peters
!!!PDT: 1850, 1865
!!!ONB: Harmony and Root analysis done manually by Craig Sapp
!! Beat 2 of measure 1 chord could also be IVb (with root on C)
